X:1
T:Peggy O Neill
T:Peggy O'Neill
T:unknown
C:Harry Pease, Ed G. Nelson, Gilbert Dodge,
Z:All Rights Reserved
L:1/4
M:3/4
K:C
V:1 treble nm="Electric Piano"
%%MIDI program 4
V:1
"C" c G G | G2 B/c/ |"D7" d A A | A2 c/A/ |"G7" B2 d/B/ | A2 B/A/ |"C" G3- | G3 | c G G | %9
w: Peg- gy O|Neill is a|girl who could|steal an- y|heart an- y-|where an- y|time||and I'll put|
w: Ev- ry- things|planned for a|wed- ding so|grand in the|spring I will|bring her the|ring||then some- where|
 G2 A/^A/ |"G" B c ^c | d3 |"D7" d c B/A/ | A2 d |"G7" d3- | d3 ||"C" E2 G | A2 c | E2 G | A3 | %20
w: you wise how|you'll re- cog-|nise|this won- der- ful|girl of|mine||if her|eyes are|blue as|skies|
w: in town we'll|both set- tle|down|and all through the|day I'll|sing||||||
 G3 | A G A |"G7" B3- | B3 |"Dm" F2 G | A2 B | F2 G |"G7" A3 | A3 | B A B |"C" E3- | E3 | c2 c | %33
w: thats|Peg- gy O|Neill||if she's|smil- ing|all the|while|thats|Peg- gy O|Neill||If she|
w: |||||||||||||
 c B A |"G7" B d3/2 B/ | G3 |"C" c2 c | c B A |"G7" B d3/2 B/ | G3 |"C" E G ^G | A G E | %42
w: walks like a|sly lit- tle|rogue|If she|talks with a|cute lit- tle|brogue|sweet per- son-|al- i- ty|
w: |||||||||
"D7" ^F A c | d c A |"Dm" c3 |"G7" B c d |"C" c3- | c3 | z3 | z3 |] %50
w: full of ras-|cal- i- ty|thats|Peg- gy O|Neill.||||
w: ||||||||

